!!!OTL: Goldringlein
!!!ARE: Europa, Mitteleuropa, Deutschland
!!!SCT: A0195
!!!YEM: Copyright 1995, estate of Helmut Schaffrath.
**kern
*ICvox
*Ivox
*M3/1
*k[b-]
*F:
{1f
=1
0a
1b-
=2
0cc
1ff
=3
1cc
1a
1b-
=4
0.cc
=5
0r}
{1cc
=6
0ff
1ee
=7
1dd
1cc
1gg
=8
1ff
2ee
2cc
1dd
=9
0cc
1r
=10
0r}
{1cc
=11
0ff
1cc
=12
1cc
1a
1cc
=13
1b-
2a
2f
1g
=14
0.f
=15
0r}
{1a
=16
0cc
1f
=17
1g
1f
1cc
=18
1b-
2a
2f
1g
=19
0f}
==
!!!AGN: Romanze, Ballade, Lied
!! Joh. Ott III 1544 No. 4 und Forster V. 1556 No. 6 und 9.
!!!ONB: ESAC (Essen Associative Code) Database: ALTDEU
!!!AMT: simple triple
!!!AIN: vox
!!!EED: Helmut Schaffrath
!!!EEV: 1.0
*-
